svg/furkot/one-way.svg

<svg viewBox="0 0 512 512" xmlns="http://www.w3.org/2000/svg"><path d="m192 320v187.712 4.288h40 48 40v-4.288-155.712-32l-64-64zm0-320v50.656 66.656 42.656l64-64 64 64v-42.656-66.656-50.656h-15.2-97.6zm-96 288h96l64-64 64 64h96l-160-160z"/></svg>

<svg xmlns="http://www.w3.org/2000/svg" viewBox="0 0 512 512"><path d="M192 320 192 320L192 320 192 507.712 192 512 232 512 280 512 320 512 320 507.712 320 352 320 320 256 256 256 256ZM192 0 192 0L192 50.656 192 117.312 192 159.968 256 95.968 320 159.968 320 159.968 320 117.312 320 50.656 320 0 304.8 0 207.2 0ZM96 288 96 288L192 288 256 224 320 288 416 288 256 128Z"/></svg>
